assets/features/home/subscription/kakao.svg

<svg width="60" height="40" viewBox="0 0 60 40" fill="none" xmlns="http://www.w3.org/2000/svg">
<rect width="60" height="40" rx="8" fill="#FAE100"/>
<path d="M17.1722 24.1867C17.1694 24.1416 17.168 24.0894 17.168 24.0373C17.168 23.2814 17.5149 22.606 18.0579 22.1632L18.0621 22.1604C18.7094 21.7176 19.5104 21.4525 20.3721 21.4525C20.4694 21.4525 20.5667 21.4553 20.6626 21.4624H20.6499H22.3492V20.9011C22.3492 19.5446 21.7508 18.8663 20.554 18.8663C20.1225 18.8691 19.7064 18.9284 19.3102 19.0341L19.344 19.0257C18.8956 19.1385 18.5077 19.2753 18.1383 19.4445L18.182 19.4261L17.749 18.384C18.1566 18.1514 18.629 17.9568 19.1254 17.8242L19.1677 17.8144C19.612 17.6903 20.1211 17.6169 20.6471 17.6141H20.6485C22.7225 17.6141 23.759 18.7201 23.7581 20.9322V26.5417H22.668L22.4917 25.58C22.0898 25.9085 21.6258 26.1849 21.1252 26.3851L21.0899 26.3978C20.6711 26.5727 20.1845 26.6785 19.674 26.6869H19.6712C19.6091 26.6926 19.5372 26.6968 19.4653 26.6968C18.1933 26.6968 17.161 25.666 17.161 24.3926C17.161 24.3207 17.1638 24.2488 17.1708 24.1783V24.1867H17.1722ZM19.9405 25.501C20.1648 25.4996 20.382 25.47 20.5893 25.4164L20.5709 25.4206C20.8304 25.3572 21.0476 25.2852 21.2591 25.2006L21.2253 25.2133C21.4622 25.1203 21.6639 25.0159 21.8542 24.8918L21.8401 24.9003C22.0319 24.7776 22.1998 24.6479 22.3535 24.5054L22.3506 24.5083V22.4565H20.8177C20.75 22.4509 20.6725 22.4481 20.5935 22.4481C20.0491 22.4481 19.54 22.6003 19.1057 22.8655L19.1184 22.8584C18.7884 23.132 18.5797 23.5423 18.5797 24.0006C18.5797 24.0443 18.5811 24.0866 18.5853 24.1303V24.1247C18.5768 24.1783 18.5712 24.2417 18.5712 24.3052C18.5712 24.9722 19.1127 25.5137 19.7798 25.5137C19.8362 25.5137 19.8926 25.5095 19.9476 25.5024L19.9405 25.501ZM27.859 26.5431H26.3839V14.1551L27.859 13.835V26.5431ZM31.8021 17.5521L32.9571 18.3855L30.1211 21.9432L33.4055 25.886L32.2675 26.7673L28.3893 22.0222L31.8021 17.5521ZM34.71 24.1867C34.7072 24.1416 34.7058 24.0909 34.7058 24.0373C34.7058 23.2814 35.0527 22.606 35.5956 22.1618L35.5999 22.159C36.2486 21.7162 37.0482 21.4511 37.9112 21.4511C38.0085 21.4511 38.1058 21.4539 38.2017 21.461H38.1891H39.8884V20.8997C39.8884 19.5432 39.29 18.8649 38.0932 18.8649C37.6616 18.8677 37.2442 18.927 36.8479 19.0327L36.8818 19.0243C36.4333 19.1371 36.0469 19.2738 35.6774 19.4431L35.7197 19.4261L35.2868 18.384C35.6943 18.1528 36.1654 17.9582 36.6632 17.8242L36.7055 17.8144C37.1497 17.6903 37.6602 17.6169 38.1862 17.6141C40.2583 17.6141 41.2963 18.7201 41.2972 20.9322V26.5417H40.2071L40.0308 25.58C39.6289 25.9085 39.1649 26.1849 38.6629 26.3851L38.6276 26.3978C38.2088 26.5727 37.7223 26.6785 37.2132 26.6869H37.2103C37.1483 26.6926 37.0764 26.6968 37.003 26.6968C35.731 26.6968 34.7001 25.666 34.7001 24.394C34.7001 24.3207 34.7029 24.2488 34.71 24.1783V24.1867ZM37.4783 25.501C37.7025 25.4996 37.9197 25.47 38.127 25.4164L38.1087 25.4206C38.3682 25.3572 38.5853 25.2852 38.7969 25.2006L38.763 25.2133C38.9999 25.1203 39.2016 25.0145 39.392 24.8918L39.3779 24.9003C39.5697 24.7776 39.7361 24.6479 39.8912 24.5054L39.8884 24.5083V22.4565H38.3569C38.2892 22.4509 38.2102 22.4481 38.1312 22.4481C37.5869 22.4481 37.0778 22.6003 36.6448 22.8655L36.6575 22.8584C36.3275 23.132 36.1174 23.5409 36.1174 23.9992C36.1174 24.0429 36.1188 24.0866 36.1231 24.1289V24.1233C36.1146 24.1769 36.1089 24.2403 36.1089 24.3038C36.1089 24.9708 36.6505 25.5123 37.3175 25.5123C37.3739 25.5123 37.4303 25.508 37.4853 25.501H37.4783ZM47.2301 17.6324C47.2851 17.6296 47.35 17.6282 47.4148 17.6282C48.4782 17.6282 49.4343 18.0865 50.0957 18.8156L50.0985 18.8184C50.7557 19.656 51.152 20.7235 51.152 21.8854C51.152 22.0025 51.1478 22.1181 51.1407 22.2323L51.1421 22.2168C51.1492 22.3141 51.1534 22.4269 51.1534 22.5425C51.1534 23.689 50.7599 24.7423 50.0999 25.5771L50.1084 25.5673C49.368 26.2907 48.3541 26.7363 47.2357 26.7363C46.1174 26.7363 45.1035 26.2907 44.3617 25.5659L44.3631 25.5673C43.7073 24.7438 43.3096 23.689 43.3096 22.5411C43.3096 22.4269 43.3139 22.3141 43.3209 22.2027L43.3195 22.2182C43.3125 22.1195 43.3082 22.0039 43.3082 21.8882C43.3082 20.7263 43.7073 19.656 44.3772 18.8099L44.3687 18.8198C45.0344 18.0879 45.9919 17.6296 47.0552 17.6296C47.1173 17.6296 47.1779 17.631 47.2386 17.6339H47.2301V17.6324ZM47.2301 18.8184C47.2005 18.817 47.1652 18.8156 47.13 18.8156C46.4418 18.8156 45.8326 19.1554 45.4631 19.6771L45.4588 19.6842C45.0654 20.3244 44.8313 21.1 44.8313 21.9305C44.8313 22.0307 44.8341 22.1308 44.8412 22.2295L44.8397 22.2168C44.8341 22.3028 44.8299 22.4029 44.8299 22.5045C44.8299 23.3209 45.064 24.0824 45.4673 24.7268L45.4574 24.7099C45.8833 25.226 46.5222 25.5518 47.2372 25.5518C47.9521 25.5518 48.591 25.226 49.0126 24.7141L49.0155 24.7099C49.4089 24.0824 49.6416 23.3209 49.6416 22.5045C49.6416 22.4029 49.6374 22.3028 49.6303 22.2041L49.6317 22.2168C49.6374 22.1308 49.6416 22.0321 49.6416 21.9319C49.6416 21.1014 49.4089 20.3258 49.0042 19.6659L49.0155 19.6842C48.6375 19.1554 48.0255 18.8156 47.3345 18.8156C47.2964 18.8156 47.2597 18.817 47.223 18.8184H47.2301ZM10.3213 26.5431H8.84619V14.1551L10.3213 13.835V26.5431ZM14.2643 17.5521L15.4193 18.3855L12.5819 21.9432L15.8678 25.886L14.7297 26.7673L10.8516 22.0222L14.2643 17.5521Z" fill="black"/>
</svg>

<svg xmlns="http://www.w3.org/2000/svg" width="60" height="40" fill="none" viewBox="0 0 60 40"><rect width="60" height="40" fill="#fae100" rx="8"/><path fill="#000" d="M17.172 24.187a2.41 2.41 0 0 1 .886-2.023l.004-.004a4.1 4.1 0 0 1 2.6-.698h-.012 1.7v-.56q-.001-2.036-1.796-2.036a5 5 0 0 0-1.244.168l.034-.008a7 7 0 0 0-1.206.419l.044-.019-.433-1.042c.408-.233.88-.427 1.376-.56l.043-.01a5.7 5.7 0 0 1 1.48-.2q3.112 0 3.11 3.318v5.61h-1.09l-.176-.962a5.3 5.3 0 0 1-1.367.805l-.035.013c-.419.175-.905.28-1.416.289h-.003a2.304 2.304 0 0 1-2.5-2.509zM19.94 25.5q.338-.003.65-.085l-.02.005c.26-.064.478-.136.69-.22l-.035.012c.237-.093.439-.197.63-.321l-.015.008c.192-.122.36-.252.514-.395l-.003.003v-2.052h-1.533a2.85 2.85 0 0 0-1.712.409l.012-.007a1.48 1.48 0 0 0-.533 1.272v-.005a1.21 1.21 0 0 0 1.362 1.378zm7.919 1.042h-1.475V14.155l1.475-.32zm3.943-8.99 1.155.832-2.836 3.558 3.285 3.943-1.139.881-3.878-4.745zm2.908 6.634a2.42 2.42 0 0 1 .886-2.025l.004-.003a4.1 4.1 0 0 1 2.602-.698h-.013 1.7v-.56q0-2.035-1.796-2.035a5 5 0 0 0-1.245.168l.034-.009c-.449.113-.835.25-1.205.42l.043-.018-.433-1.042a6 6 0 0 1 1.376-.56l.043-.01a5.7 5.7 0 0 1 1.48-.2q3.109 0 3.111 3.318v5.61h-1.09l-.176-.962a5.2 5.2 0 0 1-1.368.805l-.035.013c-.42.175-.906.28-1.415.289h-.003a2.303 2.303 0 0 1-2.5-2.509zm2.768 1.314q.337-.003.649-.085l-.018.005c.26-.064.476-.136.688-.22l-.034.012a3.5 3.5 0 0 0 .629-.321l-.014.008a3.6 3.6 0 0 0 .513-.395l-.003.003v-2.052h-1.531a2.84 2.84 0 0 0-1.712.409l.012-.007a1.48 1.48 0 0 0-.534 1.27v-.005a1.21 1.21 0 0 0 1.362 1.378zm9.752-7.869a3.61 3.61 0 0 1 2.866 1.183l.003.003a4.96 4.96 0 0 1 1.042 3.414l.001-.015a4.87 4.87 0 0 1-1.042 3.36l.008-.01a4.1 4.1 0 0 1-2.872 1.17 4.1 4.1 0 0 1-2.874-1.171l.001.001a4.85 4.85 0 0 1-1.042-3.364l-.002.015a4.94 4.94 0 0 1 1.058-3.408l-.008.01a3.62 3.62 0 0 1 2.87-1.186h-.009zm0 1.186-.1-.002a2.04 2.04 0 0 0-1.667.861l-.004.007a4.3 4.3 0 0 0-.618 2.546l-.001-.013a4.18 4.18 0 0 0 .628 2.51l-.01-.017a2.3 2.3 0 0 0 3.555.004l.003-.004a4.15 4.15 0 0 0 .614-2.506l.002.013a4.3 4.3 0 0 0-.628-2.55l.011.017a2.06 2.06 0 0 0-1.68-.868l-.112.002zm-36.909 7.725H8.846V14.155l1.475-.32zm3.943-8.99 1.155.832-2.837 3.558 3.286 3.943-1.138.881-3.878-4.745z"/></svg>
